assets/namesilo/original.svg

<svg viewBox="0 0 24 24" xmlns="http://www.w3.org/2000/svg" fill="#031B4E"><path d="m4.65 0a4.65 4.65 0 0 0 -4.65 4.65v14.7a4.65 4.65 0 0 0 4.65 4.65h14.7a4.65 4.65 0 0 0 4.65-4.65v-14.7a4.65 4.65 0 0 0 -4.65-4.65zm7.21 4.2 4.64 3.048v1.612h-.006c-.124.4-2.156.718-4.644.718s-4.52-.318-4.644-.718h-.006v-1.612zm-4.66 5.184c0 .5 2.082.906 4.65.906s4.65-.406 4.65-.906v2.587c0 .5-2.082.905-4.65.905s-4.65-.405-4.65-.905zm0 3.3c0 .5 2.082.906 4.65.906s4.65-.405 4.65-.905v2.586c0 .5-2.082.906-4.65.906s-4.65-.406-4.65-.906zm0 3.301c0 .5 2.082.906 4.65.906s4.65-.406 4.65-.906v2.587c0 .5-2.082.906-4.65.906s-4.65-.406-4.65-.906z"/></svg>

<svg xmlns="http://www.w3.org/2000/svg" fill="#031b4e" viewBox="0 0 24 24"><path d="M4.65 0A4.65 4.65 0 0 0 0 4.65v14.7A4.65 4.65 0 0 0 4.65 24h14.7A4.65 4.65 0 0 0 24 19.35V4.65A4.65 4.65 0 0 0 19.35 0zm7.21 4.2 4.64 3.048V8.86h-.006c-.124.4-2.156.718-4.644.718S7.33 9.26 7.206 8.86H7.2V7.248zM7.2 9.384c0 .5 2.082.906 4.65.906s4.65-.406 4.65-.906v2.587c0 .5-2.082.905-4.65.905s-4.65-.405-4.65-.905zm0 3.3c0 .5 2.082.906 4.65.906s4.65-.405 4.65-.905v2.586c0 .5-2.082.906-4.65.906s-4.65-.406-4.65-.906zm0 3.301c0 .5 2.082.906 4.65.906s4.65-.406 4.65-.906v2.587c0 .5-2.082.906-4.65.906s-4.65-.406-4.65-.906z"/></svg>
